svgs/duotone/trowel-bricks.svg

<svg xmlns="http://www.w3.org/2000/svg" viewBox="0 0 512 512"><!--! Font Awesome Pro 6.4.0 by @fontawesome - https://fontawesome.com License - https://fontawesome.com/license (Commercial License) Copyright 2023 Fonticons, Inc. --><defs><style>.fa-secondary{opacity:.4}</style></defs><path class="fa-primary" d="M256 32c0-11.1-5.7-21.4-15.2-27.2s-21.2-6.4-31.1-1.4l-192 96C6.8 104.8 0 115.9 0 128s6.8 23.2 17.7 28.6l192 96c9.9 5 21.7 4.4 31.1-1.4s15.2-16.1 15.2-27.2V152h89c3.6 13.8 16.1 24 31 24h88c26.5 0 48-21.5 48-48s-21.5-48-48-48H376c-14.9 0-27.4 10.2-31 24H256V32z"/><path class="fa-secondary" d="M320 224H480c17.7 0 32 14.3 32 32v64c0 17.7-14.3 32-32 32H320c-17.7 0-32-14.3-32-32V256c0-17.7 14.3-32 32-32zM0 416c0-17.7 14.3-32 32-32h96c17.7 0 32 14.3 32 32v64c0 17.7-14.3 32-32 32H32c-17.7 0-32-14.3-32-32V416zm192 0c0-17.7 14.3-32 32-32H480c17.7 0 32 14.3 32 32v64c0 17.7-14.3 32-32 32H224c-17.7 0-32-14.3-32-32V416z"/></svg>

<svg xmlns="http://www.w3.org/2000/svg" viewBox="0 0 512 512"><!--! Font Awesome Pro 6.3.0 by @fontawesome - https://fontawesome.com License - https://fontawesome.com/license (Commercial License) Copyright 2023 Fonticons, Inc. --><defs><style>.fa-secondary{opacity:.4}</style></defs><path class="fa-primary" d="M256 104H345C348.6 90.2 361.1 80 376 80H464C490.5 80 512 101.5 512 128C512 154.5 490.5 176 464 176H376C361.1 176 348.6 165.8 345 152H256V224C256 235.1 250.3 245.4 240.8 251.2C231.4 257.1 219.6 257.6 209.7 252.6L17.69 156.6C6.848 151.2 0 140.1 0 128C0 115.9 6.848 104.8 17.69 99.38L209.7 3.378C219.6-1.581 231.4-1.051 240.8 4.779C250.3 10.61 256 20.91 256 32V104z"/><path class="fa-secondary" d="M480 224C497.7 224 512 238.3 512 256V320C512 337.7 497.7 352 480 352H320C302.3 352 288 337.7 288 320V256C288 238.3 302.3 224 320 224H480zM0 416C0 398.3 14.33 384 32 384H128C145.7 384 160 398.3 160 416V480C160 497.7 145.7 512 128 512H32C14.33 512 0 497.7 0 480V416zM192 416C192 398.3 206.3 384 224 384H480C497.7 384 512 398.3 512 416V480C512 497.7 497.7 512 480 512H224C206.3 512 192 497.7 192 480V416z"/></svg>
